icons/svg/video-layout_16.svg

<svg width="16" height="16" viewBox="0 0 16 16" xmlns="http://www.w3.org/2000/svg"><title>format/video-layout_16</title><path d="M15 9L1 9l0-5c0-.551.449-1 1-1l12 0c.551 0 1 .449 1 1l0 5zm0 3c0 .551-.449 1-1 1l-3 0 0-3 4 0 0 2zm-9 1l4 0 0-3-4 0 0 3zm-4 0c-.551 0-1-.449-1-1l0-2 4 0 0 3-3 0zM14 2L2 2C.895 2 0 2.895 0 4l0 8c0 1.105.895 2 2 2l12 0c1.105 0 2-.895 2-2l0-8c0-1.105-.895-2-2-2z" fill="#000" fill-rule="evenodd"/></svg>

<?xml version="1.0" encoding="UTF-8"?>
<svg width="16px" height="16px" viewBox="0 0 16 16" version="1.1" xmlns="http://www.w3.org/2000/svg" xmlns:xlink="http://www.w3.org/1999/xlink">
    <!-- Generator: Sketch 60.1 (88133) - https://sketch.com -->
    <title>format/video-layout_16</title>
    <desc>Created with Sketch.</desc>
    <g id="format/video-layout_16" stroke="none" stroke-width="1" fill="none" fill-rule="evenodd">
        <path d="M14,2 L2,2 C0.895,2 0,2.895 0,4 L0,12 C0,13.105 0.895,14 2,14 L14,14 C15.105,14 16,13.105 16,12 L16,4 C16,2.895 15.105,2 14,2 L14,2 Z M15,12 C15,12.551 14.551,13 14,13 L11,13 L11,10 L15,10 L15,12 Z M6,13 L10,13 L10,10 L6,10 L6,13 Z M2,13 C1.449,13 1,12.551 1,12 L1,10 L5,10 L5,13 L2,13 Z M15,9 L1,9 L1,4 C1,3.449 1.449,3 2,3 L14,3 C14.551,3 15,3.449 15,4 L15,9 Z" id="fill" fill="#171B1F"></path>
    </g>
</svg>
